packages/tokens/icons/scalableBusinessModel/size32Px.svg

<svg viewBox="0 0 32 32" fill="none" xmlns="http://www.w3.org/2000/svg" width="1em" height="1em"><path d="M17.5 13.5V9.5L20.5 9.5L14.231 2.78327C13.8357 2.3597 13.1643 2.3597 12.7689 2.78327L6.5 9.5H9.5L9.5 28.5C9.5 29.0523 9.94772 29.5 10.5 29.5H16.5C17.0523 29.5 17.5 29.0523 17.5 28.5V27.5" stroke="currentColor" stroke-linecap="round" stroke-linejoin="round"/><path d="M16.929 24.0708L24 16.9997" stroke="currentColor" stroke-linecap="round"/><circle cx="18" cy="18" r="1.5" stroke="currentColor"/><circle cx="23" cy="23" r="1.5" stroke="currentColor"/></svg>

<svg xmlns="http://www.w3.org/2000/svg" fill="none" viewBox="0 0 32 32" width="1em" height="1em"><path stroke="currentColor" stroke-linecap="round" stroke-linejoin="round" d="M17.5 13.5v-4h3l-6.269-6.717a1 1 0 0 0-1.462 0L6.5 9.5h3v19a1 1 0 0 0 1 1h6a1 1 0 0 0 1-1v-1"/><path stroke="currentColor" stroke-linecap="round" d="M16.929 24.07 24 17"/><circle cx="18" cy="18" r="1.5" stroke="currentColor"/><circle cx="23" cy="23" r="1.5" stroke="currentColor"/></svg>
